src/assets/menu-ico.svg

<svg width="18" height="17" viewBox="0 0 18 17" fill="none" xmlns="http://www.w3.org/2000/svg">
<path d="M15 14.5V16.5H3V14.5H15ZM18 7.5V9.5H0V7.5H18ZM15 0.5V2.5H3V0.5H15Z" fill="white"/>
</svg>

<svg xmlns="http://www.w3.org/2000/svg" width="18" height="17" fill="none">
  <path fill="#fff" d="M15 14.5v2H3v-2h12Zm3-7v2H0v-2h18Zm-3-7v2H3v-2h12Z"/>
</svg>
